lib/brands/icons/google-verified.svg

<svg xmlns="http://www.w3.org/2000/svg" fill="none" aria-hidden="true" viewBox="0 0 48 48"><g id="google-verified-Icon"><g id="Group"><path id="Vector" fill="#4285F4" fill-rule="evenodd" d="M24 39.1983L18.4377 42L15.5039 36.2956L9.43772 35.1246L10.2531 28.6965L6 24L10.2531 19.3035L9.43772 12.8754L15.5039 11.7044L18.4377 6L24 8.80174L29.5623 6L32.4961 11.7044L38.5623 12.8754L37.7469 19.3035L42 24L37.7469 28.6965L38.5623 35.1246L32.4961 36.2956L29.5623 42L24 39.1983Z" clip-rule="evenodd"/><path id="Vector_2" fill="white" fill-rule="evenodd" d="M20.8939 26.0039L18.0234 23.1336L15.4922 25.6649L18.3626 28.5353L18.3582 28.5397L20.8894 31.0709L20.8939 31.0665L20.8982 31.0709L23.4295 28.5397L23.4251 28.5353L32.4603 19.5L29.929 16.9688L20.8939 26.0039Z" clip-rule="evenodd"/></g></g></svg>

<svg xmlns="http://www.w3.org/2000/svg" fill="none" aria-hidden="true" viewBox="0 0 48 48"><g fill-rule="evenodd" clip-rule="evenodd"><path fill="#4285F4" d="M24 39.198 18.438 42l-2.934-5.704-6.066-1.171.815-6.428L6 24l4.253-4.697-.815-6.428 6.066-1.17L18.438 6 24 8.802 29.562 6l2.934 5.704 6.066 1.171-.815 6.428L42 24l-4.253 4.697.815 6.428-6.066 1.17L29.562 42 24 39.198Z"/><path fill="#fff" d="m20.894 26.004-2.87-2.87-2.532 2.53 2.87 2.871-.004.005 2.531 2.53.005-.003.004.004 2.532-2.531-.005-.005L32.46 19.5l-2.531-2.531-9.035 9.035Z"/></g></svg>
